X:158
T:Porter's Lamentation. (p)1657.PLFD.159
M:6/4
L:1/8
Q:3/4=40
S:Playford, Dancing Master,Supplement to 3rd Ed.,1657
O:England
N:Might sound nice onWhistle & Dub.CGP.
H:1657.
Z:Chris Partington.
K:F
F2F2G>AF2F4|B2(Bd)(cA)G2G4|
ABcABcd3c(dA)|B(c/B/)AFG>AF2F4:|
|:f2f(g/f/) ecd2d(e/d/) cA|B2B(c/B/) AFc6|
c>B AG A(F/E/) Dd d>c dA|B(c/B/) AF G>AF2F4:|
